X:4
T:Lady on the Green
M:2/4
L:1/16
Z:jason
B: Bob walters, 1950
K:A
[AF][AG] | [A2A2][A2A2] [A,2E2][A,2E2] | CDEC [A,2E2][A,2E2] | [B,2D2][B,2D2] [D2D2][D2D2] | CDEC [A,2E2][A,2E2] |
[A2A2][A2A2] [A,2E2][A,2E2] | CDEC [A,2E2][A,2E2] | ABcd efed | cABA [ec][eA][e2A2] :|
|: [ec][e2e2]f [e2e2]cd | efed cAcA | Bd2e d2Bc | dedB GABG |
ABcd ea2b | afec d2ed | cBAc BAGB | A2Ac A2z2 :|

